X: 20
T:Mill Mill O, The
M:4/4
L:1/8
R:Air
K:D
d>e|"D"f2 A>B A3d|"G"B>A B<d "A"e2 d>e|"D"f2A2 "G"g>fed|"A"B3c"D"d2:|!
A|"D"d>efg a3 a|"G"g>f e<d "A"e2A2|"D"d>efg "A"a3g|"D"f3g "A"a3A|!
"D"d>efg a3 a|"G"b>agf "A"e2 d>e|"D"f3a "G"gfed|"A"B3c "D"d2||
